X:1
T:1/8
T:2/8
%%score ( 1 2 3 )
L:1/8
Q:1/4=120
M:none
K:C
V:1 treble nm="Part_1"
V:2 treble 
V:3 treble 
V:1
"^ADLIB" G,2 C2 E2 G2 c2 e2 !fermata!g4 f2 .d2 e2 .c4 c2 d2 !fermata!e2 (3f/"^ak7"e/d/(3e/d/c/ | %1
 .d4 d2 d2 .G4 B2 c2 .d2 (3e/d/c/(3d/c/_B/ .c4 |: !>!_BB .g2 !wedge!._a2 .f2 | %3
 .g2 [GAB] !wedge!._a2 _A .f2 g2 ED/E/ F2 :| _BB !wedge!.g2 !wedge!._a2 .f2 .g2 [G_AB] .a2 A | %5
 !wedge!.c'2 !wedge!.b2 !wedge!.g2 !wedge!._b2 !wedge!.a2 .f2 ._a2 !wedge!.g2 !>!E2 F2 .TG4 .Tg4 .TG4 !fermata!TG,4 :| %6
 .C4 x4 |: %7
 !>!E2 F2 E2 F2"^PIZZ" E2 .G2 .F2 .E2 .D2 E2 D2 E2 D2"^PIZZ" .F2 .E2 .D2 .C2 D2 C2 D2 C2 | %8
"^PIZZ" .E2 .D2 .C2 .B,2 C2 B,2"^arco" C2 D2 E2 D2 C2 :| !fermata!TB,4 x4 || %10
[M:4/4]"^A TEMPO" A,B, x6 |: CC CC !turn!D2 CB, | [Ac]8 | CD DD !turn!E2 DC | DD/E/ DE FE DC | %15
 F3 E E>D C2 | E3 D D>C B,2 | CD/E/ DC C>B, A,B, |"^1. 2." z C z D ED A,B, :|!p! z C z D E>D CB, | %20
 C3 D E>D CB, | [Ac]8 | C3 (3D/C/B,/ C2 z x |: E3 E2 E DD | !tenuto!C2 CE DD CC | D C3 D2 E2 | %26
 D2 F3 E FG |[K:treble] F>E D>C B, D2 E | F3 F E E2 D | !tenuto!C2 CE DD CD |"^ak7" C4 A,2 B,2 | %31
 C2 D E2 C DB, | C3 (3D/C/B,/ C C2 D :| E3 E2 E DD | !tenuto!C2 CE DD CC | D C3 D2 E2 | %36
 D2 F3 D2 E | F3 F E E2 D | !tenuto!C2 CE DD CC | G4- G E2 F | G2 G2 GE FG | A2 A2 G G2 A | %42
 B4- B G2 G | c3 c BB _AG | B2 _A(3B/A/G/ A G2 F | _A2 G(3A/G/F/ G=A z F | EG FE DF ED | %47
 C2 G2 E E2 D |[M:4/4] !fermata!E2 (3FED !fermata!C4 ||[K:G][M:4/4] !wedge!EzF x6 |: %50
 !>!.G4 _A2 G2 | F2 G7/2 F/ EF | G4 _A2 G2 | F2 G3 _A/G/ FG | A2 AG- x4 | G2 B4 G2 | c2 B_A B2 AG | %57
 _A2 GF G2 FE |"^1. 2." z G FG E/F/E/D/ EF :|!p!!>(! z G2 FGE !tenuto!E2!>)! F |: G3 G2 _A2 G | %61
 GF F2 E G2 F | G_A/G/ FE z G FG | G F2 E D D2 E |[K:treble] F2 G2- G/_A/ G/F/ | G2 G2 E2 F2 | %66
 G2 _A F2 G A/B/ x | G3 _A/8!wedge!.G/8F/8"^ak7" G E2 F x3/4 :| .G3 (3_A/8G/8F/8 G G2 A x3/4 | %69
 B2 _A A2 G2 F | _A2 G2 z A2 B | c2 B/_A/G G2 A x | B2 _A/A/ G/G/ F/F/ x3 | A/G/F E2 F2 G x | %74
 _A/G/ F/E/ E2 F2 x2 | G2 _A F2 G A/B/ x | G3 (3_A/8G/8F/8 G G2 A x3/4 | B2 _A A2 G2 F | %78
 _A2 G2 z A2 B | c2 B/_A/G G2 A x | B2 _AA G/G/ FF x | A/G/F E2 F2 G x | _A/G/ F/E/ E2 F2 x2 | %83
 G2 _A F2 G A/B/ x | z3 G3 (3_A/8G/8F/8 G E2 F :| .G3 (3_A/8G/8F/8 G G2 G x3/4 |: %86
 z _A2 A z G2 G/8F/8 x3/4 | F2 E/F/ E/E/ F/G/ x3 | F2 z _A2 G2!>(! F | _A2 z3 G/E/ F G2!>)! G :| %90
 (3.B2 _A2 B2 A2 x2 | G2 _A2 G2 F2 | G4 E2 F2 | G2 _A F2 G A/B/ x | G3 (3_A/8G/8F/8 G G2 G x3/4 :| %95
!p! G8 | _A2 B4 c2 | d/>c/ B2 z B2 B x | B3 c2 B2 c | (3c/B/_A/ G !tenuto!B2 B2 B x | .B24 | %101
 B3 c2 B2 c | B/_A/ G3 G2 A x | =F/F/8E/8 F3 A2 B/8A/8 x2 |[K:treble] G(3_A/G/=F/ G3 GA B/c/ | %105
 (3cB_A GB A A2 G |[M:4/4] .G8"^ak7" !fermata!=F4 |[M:4/4] z F GG G2 G2 |: _B3 A G2 G2 | %109
 F _B>AG AG B/A/G/A/ |!<(! z3 G/F/ G2 G2 G2!<)! G2 :|[M:2/4] G/F/ G2 A |[M:4/4] _B2 c2 BB AG | %113
 c2 c2 z B _AG | B2 _A(3B/A/G/ A G2 F | _A2 G(3A/G/F/ G=A z F | EG FE DF ED | C2 G2 E E2 D | %118
[M:4/4] !fermata!E2 (3FED !fermata!C4 |:[M:4/4] z !>!c4- x3 | c2 A2 B2 d2 | d3 c c3 A | G3 E G4- | %123
 G2 E2 F2 A2 | A3 (3B/A/G/ A2 F2 | E2 G2 A2 B2 | B3 (3c/B/A/ B2 G2 | F2 A2 B2 c2 | B3 A c4- | %129
 c2 A2 B2 c2 | B3 A c4- :| c2 A2 B2 c2 | B3 A c3 (3d/c/B/ | c4 z z B x | c c3 B3 A | cc- c6- | %136
 c8- | c8- | c3 B B>A G2 | z _B2 A G2 F2 | FAG G2 B2 A |[K:treble] c3 B/A/ G2 _B2- | B2 G=F A3 F | %143
 =FE G2 F>E F>E | =F2 E"^ak7"F E>D C2 :: !>!.G4 c4- | c2 A2 B2 d2 | d3 c c3 A | G3 E (G4 | %149
[K:treble+8] G2) E2 =F2 A2 | A3 (3B/A/G/ A2 =F2 | E2 G2 A2 B2 | B3 (3c/B/A/ B2 G2 | %153
[K:treble] =F2 A2 B2 c2 | B3 A c4- | c2 A2 B2 c2 | B3 A c4- :| c2 A2 B2 c2 | B3 A c4 | %159
 G4 z !>!=F EF |: G2 G _A2 G =FG | G"^PIZZ".C .E.G z =F EF | .B24 | G2 G _A2 G =FG | %164
 G2 z B2 _A GG | .B3 _A A3 G | (3G=FE F2 E E2 F :| .c4 G4 | c3 B c2 d>c | !tenuto!B B2 _A B2 cB | %170
 _A B2 A G A2 G | =F3 _A GB/A/ BA | G2 (3G2 !>!.=F2 G2- x2 | G2 A2 B2 c2 | c2 _B2 A2 G2 | %175
 z2 _B4 A2 | c2 _B2 A2 G2 | =F2 G4 A2 | _B2 c2 c2 B2 | A2 G2 z2 _B2- | B2 A2 c2 B2 | %181
 A2 G2 =F !>!G2 c |: c2 _BB A B2 c |[K:treble] _B2 A G2 A2 B | A2 GG =F G2 A | %185
 G=FF !tenuto!F2 F2 _B | _B2 A2"^ak7" G B2 c | c_BA G2 A2 B | A3 G2 G2 G | (3.=FGA G2 Td4 | %190
 _B2 c4 A2 | _B>A GA G G2 c :| .=FG3/2A G3 G2 G |[M:2/4] =FG G2- |[M:4/4] G_B AG G2 G2 | %195
 =F _B>AG AG B/A/G/A/ | G/=F/ G2 G FG G2- | G_B AG G2 G2 | =F _B>AG AG B/A/G/A/ | %199
[M:2/4] G/=F/ G2 A |[M:4/4] _B2 c2 BB AG | c2 c2 z B _AG | B2 _A(3B/A/G/ A G2 =F | %203
 _A2 G(3A/G/=F/ G=A z F | EG =FE DF ED | C2 G2 E E2 D | %206
[K:Ab][M:4/4] !fermata!=E2 (3FE=D !fermata!C4 |:[M:4/4] z z B,3 .C2 x | z .B, .C.D .E.D .C.B, | %209
 .B24 | .C2 z B,3 .C2 | z .C .D.E .F.E .D.C | .F2 z E3 .F2 | z F GA BA GF :| c4 B2 d2- | %215
 d2 c2 B2 A2 | B4 A2 c2- | c2 B2 A2 G2 |[K:treble] A4 G2 B2- | B2 A2 G2 F2 | TG4- GF (3AGF | %221
 F6 C2 | E3 D"^ak7" FE DC :|"^ADLIB" C2 z2 !fermata!Tc4 |: %224
 z !>!G c4 c4 B2 AG G2 B2 A G2 G F2 G2 G2 !tenuto!C4 :| %225
!>(! .A!>)!G AGF B2 =A2 B2 A2 B2 c2 d2 c2 B2 A2 _G2 F2 E2 DE F4 F4 | %226
 E _G2 E ED _F2 E2 F2 (3FED C2 |[M:4/4]"^A TEMPO" c4 B2 d2- | d2 c2 B2 A2 | B4 A2 c2- | %230
 c2 B2 A2 G2 | A4 G2 B2- | B2 A2 G2 F2 | TG4- GF (3AGF | F6 C2 | E3 D FE DC | %236
"^ADLIB" C2 z2 !fermata!C4 |: !>!G2 G GF F!fermata!E x | %238
 E G2 G GF F!fermata!E G2 FF EF E=D !fermata!E2!<(! C2 E2!<)! !fermata!C4 :: %239
 .A2 AA G A2 G G2 C2 E2 G2 G2 GGF G2 F z3 C4 :| .F4 E G2 F FE F3 EF G2 G/F3/4E/=D/ C2 |: %241
[K:Bb][M:4/4]"^A TEMPO" z2 c4 A2 | B2 G4 F2 | G2 B4 G2 | A2 F3 G (3FED | C2 D4 E2 | G2 F4 D2 | %247
[K:treble] F2 E4 C2 | E2 DC D2 CB, :| C2 CC C C2 E |: G3"^ak7" G2 A GF | G3 G2 A2!<(! A | %252
 AG z3 GE/D/ C C2!<)! E :| A(3:2:2G .G2 z B AG x | F F2 _A2 G2 F | _A2 G=B Ac BA | G3 G c3 B/A/ | %257
 B3 A/G/ A3 G/F/ | G3 (3F/E/D/ C C2 E :| .G3 G z G2 G |: GF- F2 F _A2 A | _AG-G =B2 B Ac | %262
 (3c=B_A G !tenuto!G2 G2 G :| G3 _A2 F2 F | _A2 A2 G A2 =B | _AGG !tenuto!G2 G2 G :: %266
 c2 =B d2 c _BA | G2 !tenuto!G3 G2 A | B2 A c2 B AG | z3 x C G2 G :| .F2 F2 z G2 A |: B3 A2 A GF | %272
 A2 A2 z E2 F | G3 _A2 G2 F | FG G2 z3 A :|!<(! G2 (3:2:2G2 z G2!<)! G2 |[M:2/4] G2 G2- |: %277
[M:4/4] GB AG G2 G2 | F B>AG AG B/A/G/A/ | G/F/ G2 z3 G FG G2 :|[M:2/4] G/F/ G2 A | %281
[M:4/4] B2 c2 BB AG | c2 c2 z B _AG | B2 _A(3B/A/G/ A G2 F | _A2 G(3A/G/F/ G=A z F | EG FE DF ED | %286
 C2 G2 E E2 D | !fermata!E2 (3FED !fermata!C4 |] %288
V:2
 x34 | x24 |: x2 GG [GA_B]_A FF | GG A4 GG x6 :| x2 GG _AA FF GG A4 | %5
 cc BB GG _BB AA FF _AA GG x20 :| x8 |: x42 | x22 :| x8 ||[M:4/4] x8 |: x8 | x8 | x8 | x8 | x8 | %16
 x8 | x8 | x8 :| x8 | x8 | x8 | x6 C!>!D |: x8 | x8 | x8 | x8 |[K:treble] x8 | x8 | x8 | x8 | x8 | %32
 x8 :| x8 | x8 | x8 | x8 | x8 | x8 | x8 | x8 | x8 | x8 | x8 | x8 | x8 | x8 | x8 |[M:4/4] x8 || %49
[K:G][M:4/4] x9 |: x8 | x8 | x8 | x8 | x8 | x8 | x8 | x8 | x8 :| x9 |: x8 | x8 | x8 | x8 | %64
[K:treble] x6 | x8 | x8 | x65/8 :| x8 | x8 | x8 | x8 | x8 | x8 | x8 | x8 | x8 | x8 | x8 | x8 | x8 | %81
 x8 | x8 | x8 | x41/4 :| x8 |: x8 | x8 | x8 | x10 :| x8 | x8 | x8 | x8 | x8 :| x8 | x8 | x8 | x8 | %99
 x8 | x24 | x8 | x8 | x8 |[K:treble] x8 | x8 |[M:4/4] x12 |[M:4/4] x8 |: x8 | x8 | x12 :| %111
[M:2/4] x4 |[M:4/4] x8 | x8 | x8 | x8 | x8 | x8 |[M:4/4] x8 |:[M:4/4] G4 x4 | x8 | x8 | x8 | x8 | %124
 x8 | x8 | x8 | x8 | x8 | x8 | x8 :| x8 | x8 | x5 A2 x | x8 | x8 | x8 | x8 | x8 | x8 | x8 | %141
[K:treble] x8 | x8 | x8 | x8 :: x8 | x8 | x8 | x8 |[K:treble+8] x8 | x8 | x8 | x8 |[K:treble] x8 | %154
 x8 | x8 | x8 :| x8 | x8 | x8 |: x8 | x8 | x24 | x8 | x8 | x8 | x8 :| x8 | x8 | x8 | x8 | x8 | x8 | %173
 x8 | x8 | x8 | x8 | x8 | x8 | x8 | x8 | x8 |: x8 |[K:treble] x8 | x8 | x8 | x8 | x8 | x8 | x8 | %190
 x8 | x8 :| x19/2 |[M:2/4] x4 |[M:4/4] x8 | x8 | x8 | x8 | x8 |[M:2/4] x4 |[M:4/4] x8 | x8 | x8 | %203
 x8 | x8 | x8 |[K:Ab][M:4/4] x8 |:[M:4/4] .C2 x6 | x8 | x24 | x8 | x8 | x8 | x8 :| x8 | x8 | x8 | %217
 x8 |[K:treble] x8 | x8 | x8 | x8 | x8 :| x8 |: G2 x30 :| x41 | x16 |[M:4/4] x8 | x8 | x8 | x8 | %231
 x8 | x8 | x8 | x8 | x8 | x8 |: x8 | x26 :: x24 F2 E2 x3 :| x85/4 |:[K:Bb][M:4/4] C2 x6 | x8 | x8 | %244
 x8 | x8 | x8 |[K:treble] x8 | x8 :| x8 |: x8 | x8 | x11 :| x8 | x8 | x8 | x8 | x8 | x8 :| x8 |: %260
 x8 | x8 | x8 :| x8 | x8 | x8 :: x8 | x8 | x8 | F2 F(3F/E/D/ x4 :| x8 |: x8 | x8 | x8 | %274
 x4 z G2 x :| x8 |[M:2/4] x4 |:[M:4/4] x8 | x8 | x11 :|[M:2/4] x4 |[M:4/4] x8 | x8 | x8 | x8 | x8 | %286
 x8 | x8 |] %288
V:3
 x34 | x24 |: x4 A4 | x4 FF x8 :| x14 | x36 :| x8 |: x42 | x22 :| x8 ||[M:4/4] x8 |: x8 | x8 | x8 | %14
 x8 | x8 | x8 | x8 | x8 :| x8 | x8 | x8 | x8 |: x8 | x8 | x8 | x8 |[K:treble] x8 | x8 | x8 | x8 | %31
 x8 | x8 :| x8 | x8 | x8 | x8 | x8 | x8 | x8 | x8 | x8 | x8 | x8 | x8 | x8 | x8 | x8 |[M:4/4] x8 || %49
[K:G][M:4/4] x9 |: x8 | x8 | x8 | x8 | x8 | x8 | x8 | x8 | x8 :| x9 |: x8 | x8 | x8 | x8 | %64
[K:treble] x6 | x8 | x8 | x65/8 :| x8 | x8 | x8 | x8 | x8 | x8 | x8 | x8 | x8 | x8 | x8 | x8 | x8 | %81
 x8 | x8 | x8 | x41/4 :| x8 |: x8 | x8 | x8 | x10 :| x8 | x8 | x8 | x8 | x8 :| x8 | x8 | x8 | x8 | %99
 x8 | x24 | x8 | x8 | x8 |[K:treble] x8 | x8 |[M:4/4] x12 |[M:4/4] x8 |: x8 | x8 | x12 :| %111
[M:2/4] x4 |[M:4/4] x8 | x8 | x8 | x8 | x8 | x8 |[M:4/4] x8 |:[M:4/4] x8 | x8 | x8 | x8 | x8 | x8 | %125
 x8 | x8 | x8 | x8 | x8 | x8 :| x8 | x8 | x8 | x8 | x8 | x8 | x8 | x8 | x8 | x8 |[K:treble] x8 | %142
 x8 | x8 | x8 :: x8 | x8 | x8 | x8 |[K:treble+8] x8 | x8 | x8 | x8 |[K:treble] x8 | x8 | x8 | x8 :| %157
 x8 | x8 | x8 |: x8 | x8 | x24 | x8 | x8 | x8 | x8 :| x8 | x8 | x8 | x8 | x8 | x8 | x8 | x8 | x8 | %176
 x8 | x8 | x8 | x8 | x8 | x8 |: x8 |[K:treble] x8 | x8 | x8 | x8 | x8 | x8 | x8 | x8 | x8 :| %192
 x19/2 |[M:2/4] x4 |[M:4/4] x8 | x8 | x8 | x8 | x8 |[M:2/4] x4 |[M:4/4] x8 | x8 | x8 | x8 | x8 | %205
 x8 |[K:Ab][M:4/4] x8 |:[M:4/4] x8 | x8 | x24 | x8 | x8 | x8 | x8 :| x8 | x8 | x8 | x8 | %218
[K:treble] x8 | x8 | x8 | x8 | x8 :| x8 |: x32 :| x41 | x16 |[M:4/4] x8 | x8 | x8 | x8 | x8 | x8 | %233
 x8 | x8 | x8 | x8 |: x8 | x26 :: x31 :| x85/4 |:[K:Bb][M:4/4] x8 | x8 | x8 | x8 | x8 | x8 | %247
[K:treble] x8 | x8 :| x8 |: x8 | x8 | x11 :| x8 | x8 | x8 | x8 | x8 | x8 :| x8 |: x8 | x8 | x8 :| %263
 x8 | x8 | x8 :: x8 | x8 | x8 | x8 :| x8 |: x8 | x8 | x8 | x8 :| x8 |[M:2/4] x4 |:[M:4/4] x8 | x8 | %279
 x11 :|[M:2/4] x4 |[M:4/4] x8 | x8 | x8 | x8 | x8 | x8 | x8 |] %288

